X:1
T:Life of Pleasure. JJo3.093
T:Life of Pleasure. JJo3.093
T:Each strain twice
C:Each strain twice
L:1/8
Q:3/8=90
M:6/8
K:C
V:1 treble 
V:1
 G | E>DC c>BA | G>FE F>EF | D>EF E>DC | G3- G2 F | EGc A2 G | ^FAd BAG | ^FGA DGF | G3- G2 || %9
 B/c/ | d>cB f>ed | c>BA ^G^FE | ABc EA^G | A3- A2 A/B/ | cGE ADF | EDC G2 F | EGc A2 d | %17
 BAG c2 d | edc GcB | c3- c2 |] %20

